!!!!SEGMENT: pl-wumfc--n53446--001-011_moniuszko-stanislaw--hrabina-no-9-arja.krn
!!!cenid: 18xx:4098
!!!COM: Moniuszko, Stanisław
!!!COM-rismID: pe30008351
!!!CDT: 1819/05/05-1872/06/04
!!!CNT: Polish
!!!OPR: Hrabina
!!!OTL: No. 9. Arja
!!!OMV: 011
!!!PDT:
!!!AGN:
!!!SMS-siglum: PL-Wumfc
!!!SMS-shelfmark: N53446
!!!SMS-shelfwork: 001-011 M
!!!SMS-variant:
!!!SMS-altvar:
!!!NIFC-rismSourceID: 1001165649
!!!NIFC-rismChildID: 1001165649
!!!NIFC-islandoraID: pl-wumfc:6884
!!!URL-pdf-islandora: https://repozytorium.nifc.pl/islandora/object/pl-wumfc%3A6884/datastream/PDF/view
!!!URL-scan: https://polish.musicsources.pl/pl/lokalizacje/galeria/druki-muzyczne/12579-hrabina @EN{Scan on Polish Music Sources Website} @PL{Skany w portalu Dziedzictwo Muzyki Polskiej w otwartym dostępie}
!!!ONB-nifc:
!!!AIN: 1 piano
!!!key: E
**kern	**kern	**text	**dynam	**fing
*part1	*part1	*part1	*part1	*part11
*staff2	*staff1	*staff1	*	*staff1
*I"[Piano.]	*I"[Piano.]	*	*	*
*Ipiano	*Ipiano	*	*	*
*ICklav	*ICklav	*	*	*
*clefF4	*clefG2	*	*	*
*k[f#c#g#d#]	*k[f#c#g#d#]	*	*	*
*E:	*E:	*	*	*
*M4/4	*M4/4	*	*	*
*met(c)	*met(c)	*	*	*
=1	=1	=1	=1	=1
!!LO:TX:B:a:t=Allegro maestoso.
!	!LO:TX:t=P:problem:cały tekst zapisany ponad pięciolinią	!	!	!
8.EL 8.EE/	8.eL 8.B 8.G#/	.	f	.
16D#/Jk	16d#/Jk	.	.	.
(16E\LL	(16e/LL	.	.	.
16G#\	16g#/	.	.	.
16B\	16b/	.	.	.
16E\JJ)	16eeJJ 16e/)	.	.	.
4E 4EE^/	4ee 4cc# 4e^/	.	.	.
8EL 8EE'/	8dd#L 8b 8e'/	.	.	.
8EJ 8EE'/	8cc#J 8a 8e'/	.	.	.
=2	=2	=2	=2	=2
8.EL 8.EE/	8.bL 8.g# 8.e/	.	.	.
16A#X/Jk	16a#X/Jk	.	.	.
16B\LL	(16b\LL	.	.	.
16e\	16ee\	.	.	.
16g#\JJ	16gg#\	.	.	.
16r	16bbJJ 16b\)	.	.	.
4c# 4C#^\	4bb 4ee 4b^\	.	.	.
8C#L 8CC#'/	8aaL 8ee 8an'\	.	.	.
8BBJ 8BBB'/	8gg#J 8ee 8a'\	.	.	.
=3	=3	=3	=3	=3
8AAL 8AAA/	(8.gg#L 8.dd# 8.b^\	.	.	.
8A 8AA/	.	.	.	.
.	16ff#\Jk	.	.	.
8G# 8GG#/	16ee\LL	.	.	.
.	16b\	.	.	.
8EJ 8EE/	16g#\	.	.	.
.	16cc#\JJ)	.	.	.
8D#L 8DD#/	8.bL 8.f#/	.	.	.
8BB/J	.	.	.	.
.	16a/Jk	.	.	.
(16EE/LL	(16g#\LL	.	.	.
16BB/	16b\	.	.	.
16E/	16ee\	.	.	.
16G#/JJ	16gg#\JJ	.	.	.
!!LO:LB:g=original
=4	=4	=4	=4	=4
8B\)	8bb\)	.	.	.
8r	8r	.	.	.
8B 8BB\	8gg# 8ee 8b\	.	.	.
8r	8r	.	.	.
8G# 8GG#/	8ee 8b\	.	.	.
8r	8r	.	.	.
8E 8EE/	8gg# 8ee 8b\	.	.	.
8r	8r	.	.	.
=5	=5	=5	=5	=5
8C# 8CC#/	8aa 8ee 8a\	.	.	.
!	!LO:TX:B:a:t=Recitativo	!	!	!
32c#LLL 32A\	4ee^\	Suk-	fp	.
32e\	.	.	.	.
32c# 32A\	.	.	.	.
32e\JJ	.	.	.	.
32c# 32A\LL	.	.	.	.
32e\	.	.	.	.
32c# 32A\	.	.	.	.
32e\JJ	.	.	.	.
32c# 32A\LL	8b#X\	-nio	.	.
32e\	.	.	.	.
32c# 32A\	.	.	.	.
32e\JJJ	.	.	.	.
*tremolo	*	*	*	*
32c#LLL 32A\	8.dd#\L	coś	.	.
32e\	.	.	.	.
32c# 32A\	.	.	.	.
32e\	.	.	.	.
32c# 32A\	.	.	.	.
32e\	.	.	.	.
32c# 32A\	16cc#\Jk	mię	.	.
32e\	.	.	.	.
32c# 32A\	8.a/L	tak	.	.
32e\	.	.	.	.
32c# 32A\	.	.	.	.
32e\	.	.	.	.
32c# 32A\	.	.	.	.
32e\	.	.	.	.
32c# 32A\	16g#/Jk	u-	.	.
32e\JJJ	.	.	.	.
=6	=6	=6	=6	=6
32A\LLL	(2g# 2e/	-bra-	.	.
32c#\	.	.	.	.
32A\	.	.	.	.
32c#\	.	.	.	.
32A\	.	.	.	.
32c#\	.	.	.	.
32A\	.	.	.	.
32c#\	.	.	.	.
32A\	.	.	.	.
32c#\	.	.	.	.
32A\	.	.	.	.
32c#\	.	.	.	.
32A\	.	.	.	.
32c#\	.	.	.	.
32A\	.	.	.	.
32c#\	.	.	.	.
32A\	4f# 4e/)	-ła!	.	.
32c#\	.	.	.	.
32A\	.	.	.	.
32c#\	.	.	.	.
32A\	.	.	.	.
32c#\	.	.	.	.
32A\	.	.	.	.
32c#\JJJ	.	.	.	.
*Xtremolo	*	*	*	*
32A\LLL	8aL 8f# 8e/	jak-	<	.
32c#\	.	.	.	.
32A\	.	.	.	.
32c#\JJ	.	.	.	.
32G#\LL	8bJ 8g# 8e/	-by	[[	.
32B\	.	.	.	.
32G#\	.	.	.	.
32B\JJJ	.	.	.	.
!!LO:LB:g=original
=7	=7	=7	=7	=7
8A 8F#\	4cc# 4a\	po-	.	.
8r	.	.	.	.
4r	4f#/	-sąg	.	.
2r	(4.ff#^\	w gre-	.	.
.	8ee\	-ckim	.	.
=8	=8	=8	=8	=8
*	*^	*	*	*
8.r	4ee/)	8.r	stroju	f	.
16BKL 16BB/	.	16b\KL	.	.	.
8F# 8FF#/	4dd#/	8b\	.	.	.
16r	.	16r	.	.	.
16D#Jk 16DD#/	.	16ff#Jk 16b\	.	.	.
8BB 8BBB/	8bb 8ff# 8dd# 8b\	4ryy	.	.	.
8r	8r	.	.	.	.
4r	8.dd#\L	4ryy	hoł-	.	.
.	16ee\Jk	.	-dy	.	.
=9	=9	=9	=9	=9	=9
1B 1D#	(4.ff#/	1f#	ty-	.	.
.	8b/)	.	-lu	.	.
.	(4.b/	.	za-	.	.
.	8a/)	.	-zdrość	.	.
*	*v	*v	*	*	*
=10	=10	=10	=10	=10
(4.E\	8g#/	ty-	.	.
.	8g#L 8e'/	-lu	.	.
.	8g# 8e'/	.	.	.
8D#\)	8g#J 8e'/	.	.	.
4C#/	8g#L 8e'/	.	.	.
.	8g# 8e'/	.	.	.
8GG#/L	(8g# 8e/	Bę-	.	.
8EE/J	8g#J 8e/)	-dę	.	.
=11	=11	=11	=11	=11
*	*^	*	*	*
2CC#/	(4.ee/	8r	bę-	.	.
.	.	8g#L 8e\	.	.	.
.	.	8g# 8e\	.	.	.
.	8dd#/)	8g#J 8e\	-dę	.	.
2FF#/	4.cc#/	8r	dziś	.	.
.	.	8a#XL 8e\	.	.	.
.	.	8a# 8e\	.	.	.
.	8f#/	8e\J	wi-	.	.
!!LO:LB:g=original
=12	=12	=12	=12	=12	=12
8r	8cc#/	8r	-działa.	.	.
8BB\L	8bL 8f# 8d#/	8ryy	.	.	.
8D#\	8b 8f# 8d#/	2ryy	.	.	.
8F#\J	8bJ 8f# 8d#/	.	.	.	.
8B\	8b 8f# 8d#/	.	.	.	.
8r	8r	.	.	.	.
4r	8.b\L	4ryy	Suk-	.	.
.	16ccn\Jk	.	-nio	.	.
=13	=13	=13	=13	=13	=13
(<4c# 4A#X\	(4cc#X/	2gn\	mo-	<	.
4dn 4B\	4ddn/	.	-ja,	[	.
4d#X 4B#X\	4.ff#/	4an\	dzię-	>	.
4e 4c#\	.	4g\	.	]	.
.	8ee/	.	-ki	.	.
=14	=14	=14	=14	=14	=14
*^	*	*	*	*	*
2dn/	4F#\	2ddn/	2.a\	to-	.	.
.	4Fn\	.	.	.	.	.
4e/	4E\	4ccn/)	.	-bie	.	.
4B/	4D#X\)	(8.b/L	4f#\	Od	.	.
.	.	16a#X/Jk	.	dzieś	.	.
*v	*v	*	*	*	*	*
=15	=15	=15	=15	=15	=15
(4Gn 4E\	4b/)	4e\	dnia	.	.
4An 4F#\	(4b/	4d#\	w naj-	.	.
4B 4G\	4.ee/	2e\	-pierw-	.	.
4A\	.	.	.	.	.
.	8ccn/	.	-szych	.	.
*	*v	*v	*	*	*
!!LO:LB:g=original
=16	=16	=16	=16	=16
8B\)	8bL 8d#/)	rzę-	.	.
8r	8f#/J	-dzie	.	.
4r	8.f#/L	sa-	<	.
.	16g#/Jk	-lon	.	.
2r	8.a/L	mój	.	.
.	16b/Jk	ton	.	.
.	8.cc#\L	da-	.	.
.	16dd#\Jk	-wać	[[	.
=17	=17	=17	=17	=17
*	*^	*	*	*
4r	1ee^^	4r	bę-	f	.
4C# 4CC#/	.	8.eeL 8.g# 8.e\	.	.	.
.	.	16eeJk 16g# 16e\	.	.	.
4BB 4BBB/	.	8.eeL 8.dd# 8.g# 8.e\	.	.	.
.	.	16eeJk 16dd# 16g# 16e\	.	.	.
4AA 4AAA/	.	8.eeL 8.cc# 8.a 8.e\	-dzie	.	.
.	.	16eeJk 16cc# 16a 16e\	.	.	.
*	*v	*v	*	*	*
=18	=18	=18	=18	=18
16GG# 16GGG#/	16ee 16b 16e/	.	.	.
16r	16r	.	.	.
8B'\L	8b'\L	co	<	.
8A#X'\	8a#X'\	zech-	.	.
8B'\J	8b'\J	-cę	.	.
8c#'\L	8cc#'\L	to	.	.
8d#'\	8dd#'\	w so-	.	.
8e'\	8ee'\	-sje-	.	.
8f#'\J	8ff#'\J	-cie	[[	.
=19	=19	=19	=19	=19
*	*^	*	*	*
*ped	*	*	*	*	*
4g#\	1gg#^^	4r	zro-	.	.
*Xped	*	*	*	*	*
8.c#L 8.C#\	.	8.gg#L 8.ee 8.g#\	.	ff	.
16c#Jk 16C#\	.	16gg#Jk 16ee 16g#\	.	.	.
8.B#XL 8.BB#X\	.	8.gg#L 8.dd# 8.g#\	.	.	.
16B#Jk 16BB#\	.	16gg#Jk 16dd# 16g#\	.	.	.
8.B#L 8.BB#\	.	8.gg#L 8.ee#X 8.ddn 8.g#\	.	.	.
16B#Jk 16BB#\	.	16gg#Jk 16ee# 16dd 16g#\	.	.	.
*	*v	*v	*	*	*
!!LO:PB:g=original
=20	=20	=20	=20	=20
4A 4AA\	4gg# 4cc# 4g#^^\	-bię	.	.
!	!LO:TX:i:a:t=marcato	!	!	!
8.f#\L	8.ff#\L	.	.	.
16e\Jk	16ee\Jk	.	.	.
4c#\	4cc#\	.	.	.
8.B\L	8.b/L	.	.	.
16A\Jk	16a/Jk	.	.	.
=21	=21	=21	=21	=21
*^	*	*	*	*
4F#/	4r	4f#/	.	.	.
8.E/L	8.r	8.e/L	.	.	.
16D#/Jk	16r	16d#/Jk	.	.	.
4C#/	2F##X 2AA#X\	4e/	.	sfp	.
8.D#/L	.	8.d#/L	.	.	.
16E/Jk	.	16c#/Jk	.	.	.
*v	*v	*	*	*	*
=22	=22	=22	=22	=22
8.r	16c#'/LL	.	.	.
.	16B'/JJ	.	.	.
.	16r	.	.	.
16B\	16g# 16e/	.	f	.
8G#\L	8bL 8e/	.	.	.
16r	16r	.	.	.
16E\Jk	16eeJk 16b 16g#/	.	.	.
.	16qqb/LL	.	.	.
.	16qqee/JJ	.	.	.
8BB/	[2gg#tt\	.	.	.
8r	.	.	.	.
4r	.	.	.	.
=23	=23	=23	=23	=23
1r	2gg#ttt\]	.	.	.
.	(16bb\LL	.	.	.
.	16aa\	.	.	.
.	16gg#\	.	.	.
.	16ff#\JJ	.	.	.
.	16ee\LL	.	.	.
.	16dd#\	.	.	.
.	16cc#\	.	.	.
.	16b\JJ)	.	.	.
!!LO:LB:g=original
=24	=24	=24	=24	=24
1r	(16eee\LL	.	.	.
.	16ddd#\	.	.	.
.	16ccc#\	.	.	.
.	16bb\JJ	.	.	.
.	16aa\LL	.	.	.
.	16gg#\	.	.	.
.	16ff#\	.	.	.
.	16ee\JJ)	.	.	.
.	(16ggg#\LL	.	.	.
.	16fff#\	.	.	.
.	16eee\	.	.	.
.	16ddd#\JJ	.	.	.
.	16ccc#\LL	.	.	.
.	16bb\	.	.	.
.	16aa\	.	.	.
.	16gg#\JJ	.	.	.
=25	=25	=25	=25	=25
1r	16ff#\LL	.	.	.
.	16ee\	.	.	.
.	16dd#\	.	.	.
.	16cc#\JJ	.	.	.
.	8b\)	.	.	.
.	(16ee\LL	.	.	.
.	16b\JJ)	.	.	.
.	(16gg#\LL	.	.	.
.	16b\)	.	.	.
.	(16bb\	.	.	.
.	16gg#\JJ)	.	.	.
.	16eee'\LL	.	.	.
.	(16gg#\	.	.	.
.	16aa\	.	.	.
.	16aa#X\JJ)	.	.	.
=26	=26	=26	=26	=26
*	*^	*	*	*
2r	1bbTT	2r	.	.	.
2d# 2B\	.	(>2g#\	.	pp	.
=27	=27	=27	=27	=27	=27
2c# 2A#X\	1bbTT	2f##X\	.	.	.
2An\	.	2f#X 2dn\)	.	.	.
*	*v	*v	*	*	*
.	16qqaa#X/LL	.	.	.
.	16qqbb/JJ	.	.	.
!!LO:LB:g=original
=28||	=28||	=28||	=28||	=28||
*M2/4	*M2/4	*	*	*
!!LO:TX:B:a:t=Allegretto.
8EE'\L	8eee\	.	.	.
8e 8B 8G#'\	8r	.	.	.
8E'\	4r	.	.	.
8eJ 8B 8G#'\	.	.	.	.
=29	=29	=29	=29	=29
8E'\L	8b'\L	Dźwięk	.	.
8e 8B 8G#'\	8ee'\	do	.	.
8E'\	(8.ee\	ko-	.	.
8eJ 8B 8G#'\	.	.	.	.
.	16dd#\Jk)	-ła	.	.
=30	=30	=30	=30	=30
8A'\L	8dd#'\L	blask	.	.
8eJ 8c#'\	8cc#'\J	i	.	.
8E'\L	4b\	woń,	.	.
8eJ 8B 8G#'\	.	.	.	.
=31	=31	=31	=31	=31
8A'\L	(8cc#\L	pły-	.	.
8e 8c#'\	8ee\)	-ną	.	.
8G#'\	8b\	tę-	.	.
.	8qdd#/	.	.	.
8eJ 8B'\	8cc#\J	-czą	.	.
=32	=32	=32	=32	=32
*	*^	*	*	*
8D#'\L	(8.b/L	8r	ga-	.	1-5
8B 8F# 8BB'\	.	8d#\	.	.	.
.	16a/Jk)	.	-zy,	.	.
8E'\	8a'/L	8r	wstę-	.	.
8B'\J	8g#'/J	8e\	-gi,	.	.
*	*v	*v	*	*	*
=33	=33	=33	=33	=33
8BB\L	(16f#'/LL	błysz-	.	.
.	16g#'/	.	.	.
8d#J 8B 8F#\	16a#X'/	-szczą	.	.
.	16b'/JJ)	.	.	.
8BB\L	(8dd#\L	lus-	.	.
8eJ 8A#X 8F#\	8cc#\J)	-tra	.	.
!!LO:LB:g=original
=34	=34	=34	=34	=34
8BB\L	(16b/LL	w dło-	.	.
.	16a#X/)	.	.	.
.	8qa#/	.	.	.
8d#J 8B 8F#\	16g#'/	-ni	.	.
.	16f#'/JJ	.	.	.
8BB\L	(8.dd#^\L	dłoń,	.	.
8A#XJ 8F# 8E\	.	.	.	.
.	16cc#\Jk)	.	.	.
=35	=35	=35	=35	=35
!	!	!	!LO:HP:a	!
8F#L 8D#\	16b\LL	już	<	.
.	16cc#\	.	.	.
8BJ 8F# 8BB\	16dd#\	tań-	.	.
.	16ff#\JJ	.	[	.
8EE\L	(8.ff#^\L	-czą-	.	.
8c#J 8G# 8E\	.	.	.	.
.	16ee\Jk)	-ce	.	.
=36	=36	=36	=36	=36
8FF#\L	(8dd#\L	wi-	.	.
8eJ 8A#X 8F#\	8cc#\)	-dzę	.	.
.	8qdd#/	.	.	.
8BB\L	(8cc#\	krę-	.	.
8d#J 8An 8F#\	8b\J)	-gi	.	.
=37	=37	=37	=37	=37
8E\L	8b'\L	.	.	.
8eJ 8B 8G#\	8ee'\J	.	.	.
.	8qff#/	.	.	.
8E\L	8.ee\L	.	.	.
8eJ 8B#X 8G#\	.	.	.	.
.	16dd#\Jk	.	.	.
=38	=38	=38	=38	=38
.	8qee'/	.	.	.
8A\L	8dd#'\L	.	.	.
8eJ 8c#\	8cc#'\J	.	.	.
8E\L	4b\	.	.	.
8eJ 8Bn 8G#\	.	.	.	.
!!LO:LB:g=original
=39	=39	=39	=39	=39
!	!LO:TX:i:b:t=ad libitum	!	!	!
!	!LO:TX:t=P:problem:w źródle cztery triole	!	!	!
4e (<4A\	24cc#^\LL	.	.	.
.	24aa\	.	.	.
.	24gg#\J	.	.	.
.	24ff#\L	.	.	.
.	24ee\	.	.	.
.	24cc#\J	.	.	.
8eL 8G#\)	24b\L	.	.	.
.	24gg#\	.	.	.
.	24dd#\J	.	.	.
8BJ 8G# 8E\	24ee\L	.	.	.
.	24b\	.	.	.
.	8qqdd#/	.	.	.
.	24cc#\JJ	.	.	.
=40	=40	=40	=40	=40
*	*^	*	*	*
!	!LO:TX:i:a:t=a tempo	!	!	!	!
8F#L 8D#\	(8.b/L	8r	.	.	.
8BJ 8F# 8BB\	.	8d#\	.	.	.
.	16a/K	.	.	.	.
8E\L	8g#/J)	8r	.	.	.
8BJ 8G#\	8r	8e\	.	.	.
*	*v	*v	*	*	*
=41	=41	=41	=41	=41
8A\L	16f#/LL	.	<	.
.	16g#/	.	.	.
8d#J 8B\	16a/	.	.	.
.	16b/JJ	.	[	.
8G#\L	8.cc#\L	.	>	.
8eJ 8B\	.	.	.	.
.	16b\Jk	.	]]	.
=42	=42	=42	=42	=42
8F#\L	16a\LL	.	<	.
.	16b\	.	.	.
8BJ 8A\	16cc#\	.	.	.
.	16dd#\JJ	.	[	.
8E\L	8.ff#\L	.	>	.
8eJ 8B 8G#\	.	.	.	.
.	16ee\Jk	.	]]	.
=43	=43	=43	=43	=43
8AA\L	16dd#\LL	.	.	.
.	16cc#\	.	.	.
8eJ 8c# 8A\	16b\	.	.	.
.	16a\JJ	.	.	.
8BB\L	8g#\L	.	.	.
!	!LO:TX:i:b:t=leggierissimo	!	!	!
.	(8qcc#/	.	.	.
8eJ 8B 8G#\	8b\J)	.	.	.
!!LO:LB:g=original
=44	=44	=44	=44	=44
.	(8qb/	.	.	.
8BB\L	8a\L)	.	.	.
.	(8qdd#/	.	.	.
8d#J 8B 8A\	8cc#\J)	.	.	.
.	(8qcc#/	.	.	.
8E\L	8b\)	.	.	.
8eJ 8B 8G#\	8r	.	.	.
=45	=45	=45	=45	=45
!	!	!	!LO:HP:b:t=cre-scen-do:ext2=ud	!
8A\L	16f#/LL	.	<	.
.	16g#/	.	.	.
8d#J 8B\	16a/	.	.	.
.	16b/JJ	.	.	.
8G#\L	8.cc#\L	.	.	.
8eJ 8B\	.	.	.	.
.	16b\Jk	.	.	.
=46	=46	=46	=46	=46
8BL 8A 8F#\	16cc#\LL	.	.	.
.	16dd#\	.	.	.
8AJ 8F# 8BB\	16ee\	.	.	.
.	16ff#\JJ	.	.	.
8.E 8.BB 8.EE/	(8.aaL 8.ee 8.b^\	.	[	.
16r	16gg#\Jk	.	f >	.
=47	=47	=47	=47	=47
*	*^	*	*	*
4r	16ff#\LL	4ryy	.	.	.
.	16ee\	.	.	.	.
.	16b\	.	.	.	.
.	16g#\JJ	.	.	]	.
8r	8e/)	8ryy	.	.	.
(8A#X [8BB\	16.dd#;/LL	(8gn 8e\	.	sf	.
.	32cc#/JJk	.	.	.	.
=48	=48	=48	=48	=48	=48
8BL 8BB\])	(8.b/L	8f#L 8d#\)	.	.	.
8F#J 8BB'\	.	8d#\J	.	.	.
.	32an/LL	.	.	.	.
.	32f#/JJJ	.	.	.	.
8G#X 8E'\	8e/)	8e\	.	.	.
8r	8r	8ryy	.	.	.
*	*v	*v	*	*	*
!!LO:PB:g=original
=49||	=49||	=49||	=49||	=49||
*k[f#c#g#d#a#]	*k[f#c#g#d#a#]	*	*	*
!!LO:TX:B:a:t=Più allegro.
8BB 8FF# 8BBB/	8.bL 8.d# 8.B/	.	f	.
16r	.	.	.	.
16B 16F# 16BB'\	16f#'/Jk	.	.	.
16BLL 16F# 16BB'\	16d#'/LL	.	.	.
16B 16F# 16BB'\	16f#'/	.	.	.
16B 16F# 16BB'\	16b'/	.	.	.
16BJJ 16F# 16BB'\	16dd#'/JJ	.	.	.
=50	=50	=50	=50	=50
8BL 8F# 8BB'\	8ff#'\L	.	.	.
8BJ 8F# 8BB'\	8ff#J 8dd# 8b'\	.	.	.
4B 4F# 4BB^^\	4bb 4dd# 4b^^\	.	.	.
=51	=51	=51	=51	=51
8D#\L	(8f#^/L	.	p	.
8BJ 8F#\	16g#/L	.	.	.
.	16a#/JJ	.	.	.
.	16qqb/LL	.	.	.
.	16qqcc#/JJ	.	.	.
8BB\L	16b/LL	.	.	.
.	16a#/	.	.	.
8BJ 8F#\	16b/	.	.	.
.	16dd#/JJ)	.	.	.
=52	=52	=52	=52	=52
8AA#\L	8ff#\L	.	.	.
8c#J 8F#\	16r	.	.	.
.	16ee\Jk	.	.	.
8FF#'/L	8cc#\	.	.	.
8F#'/J	(16eeLL 16cc#\	.	.	.
.	16dd#JJ 16b\)	.	.	.
=53	=53	=53	=53	=53
8FF#/	(4dd# 4b\	.	.	.
(16F#\LL	.	.	.	.
16f#\JJ	.	.	.	.
8f#'\)	8cc# 8a#\)	.	.	.
8F#'\	(16eeLL 16cc#\	.	.	.
.	16dd#JJ 16b\)	.	.	.
!!LO:LB:g=original
=54	=54	=54	=54	=54
8FF#/	(4dd# 4b\	.	.	.
(16F#\LL	.	.	.	.
16f#\JJ)	.	.	.	.
8f#'\	8cc# 8a#\)	.	.	.
8F#'\	16cc#LL 16a#/	.	.	.
.	16bJJ 16g#/	.	.	.
=55	=55	=55	=55	=55
8F#L 8FF#'/	8a#L 8f# 8A#/	.	.	.
8F# 8GG#'/	8g# 8e 8B/	.	.	.
8F# 8GG##X'/	8f# 8d# 8B#X/	.	.	.
8F#J 8AA#'/	8eJ 8c#/	.	.	.
=56	=56	=56	=56	=56
8F# 8BBn/	(8.d#/L	.	.	.
(32c#\LLL	.	.	.	.
32B\	.	.	.	.
32A#\	16b/K	.	.	.
32G#\JJJ	.	.	.	.
8F#\)	8f#/J)	.	.	.
8r	8r	.	.	.
=57	=57	=57	=57	=57
8BB 8FF# 8BBB/	8.bL 8.d# 8.B/	.	f	.
16r	.	.	.	.
16B 16F# 16BB'\	16f#'/Jk	.	.	.
16BLL 16F# 16BB'\	16d#'/LL	.	.	.
16B 16F# 16BB'\	16f#'/	.	.	.
16B 16F# 16BB'\	16b'/	.	.	.
16BJJ 16F# 16BB'\	16dd#'/JJ	.	.	.
=58	=58	=58	=58	=58
8BL 8F# 8BB'\	8ff#'\L	.	.	.
8BJ 8F# 8BB'\	8ff#J 8dd# 8b'\	.	.	.
4B 4F# 4BB^^\	4bb 4dd# 4b^^\	.	.	.
!!LO:LB:g=original
=59	=59	=59	=59	=59
8D#\L	(8f#^/L	.	p	.
8BJ 8F#\	16g#/L	.	.	.
.	16a#/JJ	.	.	.
.	16qqb/LL	.	.	.
.	16qqcc#/JJ	.	.	.
8BB\L	16b/LL	.	.	.
.	16a#/	.	.	.
8BJ 8F#\	16b/	.	.	.
.	16dd#/JJ)	.	.	.
=60	=60	=60	=60	=60
8AA#'\L	(8.gg#^;\L	.	.	.
8c#J 8F#'\	.	.	.	.
.	16ff#\Jk	.	.	.
8F#\	8cc#\)	.	.	.
8r	(16ee\LL	.	.	.
.	16dd#\JJ)	.	.	.
=61	=61	=61	=61	=61
8F#\L	(4dd#\	.	.	.
8eJ 8A#\	.	.	.	.
8F##X\L	8cc#\)	.	.	.
8c#J 8A#\	(16ee\LL	.	.	.
.	16dd#\JJ)	.	.	.
=62	=62	=62	=62	=62
8G#\L	(4dd#\	.	<	.
8eJ 8c#\	.	.	.	.
8An\L	8cc#\)	.	.	.
8eJ 8c#\	16cc#LL 16gn\	.	.	.
.	16dd#\JJ	.	[[	.
=63	=63	=63	=63	=63
8A#X\L	(8.ff#L 8.f#\	.	sf >	.
8eJ 8c#\	.	.	.	.
.	32ee\LL	.	.	.
.	32dd#\JJJ	.	.	.
8F#\L	8cc#'/L)	.	]	.
8eJ 8A#\	(8f#/J	.	.	.
!!LO:LB:g=original
=64	=64	=64	=64	=64
!!LO:TX:B:a:t=Allegro.
16F#LL 16D# 16BB\	8b 8f# 8d#/)	.	sf	.
16B\	.	.	.	.
16F# 16D# 16BB\	16r	.	.	.
16B\JJ	16b\	.	.	.
16F#LL 16D# 16BB\	16cc#\LL	.	.	.
16B\	16dd#\	.	.	.
16F# 16D# 16BB\	16ee\	.	.	.
16B\JJ	16ff#\JJ	.	.	.
=65	=65	=65	=65	=65
16E#XLL 16C##X 16BB\	8gg# 8cc##X 8b\	.	sf	.
16G#\	.	.	.	.
16E# 16C## 16BB\	16r	.	.	.
16G#\JJ	16gg#\	.	.	.
.	8qaa#/	.	.	.
16E#LL 16C## 16BB\	16gg#\LL	.	.	.
16G#\	16ff##X\	.	.	.
16E# 16C## 16BB\	16gg#\	.	.	.
16G#\JJ	16aa#\JJ	.	.	.
=66	=66	=66	=66	=66
16F#LL 16D# 16BB\	8bb 8ff# 8dd#\	.	sf	.
16B\	.	.	.	.
16F# 16D# 16BB\	16r	.	.	.
16B\JJ	16b\	.	.	.
16F#LL 16D# 16BB\	16cc#\LL	.	.	.
16B\	16dd#\	.	.	.
16F# 16D# 16BB\	16ee\	.	.	.
16B\JJ	16ff#\JJ	.	.	.
=67	=67	=67	=67	=67
16E#XLL 16C##X 16BB\	8gg# 8cc##X 8b\	.	sf	.
16G#\	.	.	.	.
16E# 16C## 16BB\	16r	.	.	.
16G#\JJ	16gg#\	.	.	.
.	8qaa#/	.	.	.
16E#LL 16C## 16BB\	16gg#\LL	.	.	.
16G#\	16ff#\	.	.	.
16E# 16C## 16BB\	16gg#\	.	.	.
16G#\JJ	16aa#\JJ	.	.	.
!!LO:LB:g=original
=68	=68	=68	=68	=68
*	*	*	*^	*
16D#LL 16BB\	8bb 8ff# 8dd#\	.	.	sf	.
16F#\	.	.	.	.	.
16D# 16BB\	16r	.	.	.	.
!	!	!	!LO:HP:b:t=cre-scen-do:ext2=ud	!	!
16F#\JJ	16b\	.	<	.	.
16D#LL 16BB\	16cc#\LL	.	.	.	.
16F#\	16dd#\	.	.	.	.
16D# 16BB\	16ee\	.	.	.	.
16F#\JJ	16ff#\JJ	.	.	.	.
=69	=69	=69	=69	=69	=69
16BBLL 16EE/	8gg# 8ddn 8b\	.	.	sf	.
16E/	.	.	.	.	.
16BB 16EE/	16r	.	.	.	.
16E/JJ	16ee\	.	.	.	.
16Dn/LL	16ff#\LL	.	.	.	.
16E/	16gg#\	.	.	.	.
16BB/	16aa#\	.	.	.	.
16E/JJ	16bb\JJ	.	.	.	.
=70	=70	=70	=70	=70	=70
16AAn/LL	8ccc# 8ggn 8ee\	.	.	sf	.
16E/	.	.	.	.	.
16AA/	16r	.	.	.	.
16E/JJ	16aan\	.	.	.	.
16GG#/LL	16bb\LL	.	.	.	.
16E/	16ccc#\	.	.	.	.
16GGn/	16dddn\	.	.	.	.
16E/JJ	16eee\JJ	.	[[	.	.
*	*	*	*v	*v	*
=71	=71	=71	=71	=71
16C#LL 16AA#X 16FF#/	8fff# 8ccc# 8aa#X\	.	sf	.
16F#/	.	.	.	.
16C#/	16r	.	.	.
16F#/JJ	16ccc#\	.	.	.
*	*8va	*	*	*
16FF#/LL	16eee\LL	.	.	.
16F#/	16fff#\	.	.	.
16FF#/	16ggg#\	.	.	.
16F#/JJ	16aaa#X\JJ	.	.	.
!!LO:LB:g=original
=72	=72	=72	=72	=72
16D#LL 16BB\	8bbb 8bb\	.	???	.
16F#\	.	.	.	.
*	*X8va	*	*	*
16D# 16BB\	16r	.	.	.
16F#\JJ	16b\	.	.	.
16D#LL 16BB\	16cc#\LL	.	.	.
16F#\	16dd#\	.	.	.
16D# 16BB\	16ee\	.	.	.
16F#\JJ	16ff#\JJ	.	.	.
=73	=73	=73	=73	=73
16E#XLL 16C##X 16BB\	8gg# 8cc##X 8b\	.	.	.
16G#\	.	.	.	.
16E# 16C## 16BB\	16r	.	.	.
16G#\JJ	16gg#\	.	.	.
.	8qaa#/	.	.	.
16E#LL 16C## 16BB\	16gg#\LL	.	.	.
16G#\	16ff##X\	.	.	.
16E# 16C## 16BB\	16gg#\	.	.	.
16G#\JJ	16aa#\JJ	.	.	.
=74	=74	=74	=74	=74
16F#LL 16D# 16BB\	8bb 8ff# 8dd#\	.	sf	.
16B\	.	.	.	.
16F# 16D# 16BB\	16r	.	.	.
16B\JJ	16b\	.	.	.
16F#LL 16D# 16BB\	16cc#\LL	.	.	.
16B\	16dd#\	.	.	.
16F# 16D# 16BB\	16ee\	.	.	.
16B\JJ	16ff#\JJ	.	.	.
=75	=75	=75	=75	=75
16E#XLL 16C##X 16BB\	8gg# 8cc##X 8b\	.	sf	.
16G#\	.	.	.	.
16E# 16C## 16BB\	16r	.	.	.
16G#\JJ	16gg#\	.	.	.
.	8qaa#/	.	.	.
16E#LL 16C## 16BB\	16gg#\LL	.	.	.
16G#\	16ff##X\	.	.	.
16E# 16C## 16BB\	16gg#\	.	.	.
16G#\JJ	16aa#\JJ	.	.	.
!!LO:PB:g=original
=76	=76	=76	=76	=76
*	*	*	*^	*
16D#LL 16BB\	8bb 8ff# 8dd#\	.	.	sf	.
16F#\	.	.	.	.	.
16D# 16BB\	16r	.	.	.	.
!	!	!	!LO:HP:b:t=cre-scen-do:ext2=ud	!	!
16F#\JJ	16b\	.	<	.	.
16D#LL 16BB\	16cc#\LL	.	.	.	.
16F#\	16dd#\	.	.	.	.
16D# 16BB\	16ee\	.	.	.	.
16F#\JJ	16ff#\JJ	.	.	.	.
=77	=77	=77	=77	=77	=77
16EE/LL	8gg# 8ddn 8b\	.	.	sf	.
16E/	.	.	.	.	.
16GG#/	16r	.	.	.	.
16E/JJ	16ee\	.	.	.	.
16BB/LL	16ff#\LL	.	.	.	.
16E/	16gg#\	.	.	.	.
16EE/	16aa#\	.	.	.	.
16E/JJ	16bb\JJ	.	.	.	.
=78	=78	=78	=78	=78	=78
16AAn\LL	8ccc# 8ggn 8ee\	.	.	sf	.
16An\	.	.	.	.	.
16E\	16r	.	.	.	.
16A\JJ	16aan\	.	.	.	.
16C#\LL	16bb\LL	.	.	.	.
16A\	16ccc#\	.	.	.	.
16AA\	16dddn\	.	.	.	.
16A\JJ	16eee\JJ	.	[[	.	.
*	*	*	*v	*v	*
=79	=79	=79	=79	=79
16AAnLL 16DDn/	8fff# 8cccn 8aan\	.	<	.
16Dn/	.	.	.	.
16FF#/	16r	.	.	.
*	*8va	*	*	*
16D/JJ	16dddn\	.	.	.
16AA/LL	16eee\LL	.	.	.
16D/	16fff#\	.	.	.
16DD/	16gggn\	.	.	.
16D/JJ	16aaa\JJ	.	[[	.
!!LO:LB:g=original
=80	=80	=80	=80	=80
16GGn\LL	8.bbbL 8.dddn 8.bb^^\	.	.	.
16Gn\JJ	.	.	.	.
16B 16G\LL	.	.	.	.
16dn\JJ	16gggn\Jk	.	.	.
16BLL 16G\	16ddd/LL	.	.	.
16d\	16bb/	.	.	.
16B 16G\	16ggn/	.	.	.
16d\JJ	16ff#/JJ	.	.	.
*	*X8va	*	*	*
=81	=81	=81	=81	=81
16cnLL 16Gn\	16ee\LL	.	.	.
16e\	16ddn\	.	.	.
16c 16G\	16ccn\	.	.	.
16e\JJ	16dd\JJ	.	.	.
16cLL 16G\	16ee\LL	.	.	.
16e\	16ff#\	.	.	.
16c 16G\	16ggn\	.	.	.
16e\JJ	16aan\JJ	.	.	.
=82	=82	=82	=82	=82
8Gn/ 8GGn/	8.bbL 8.ddn 8.b^^\	.	.	.
16BLL 16G\	.	.	.	.
16dn\JJ	16aan\Jk	.	.	.
16BLL 16G\	16ggn\LL	.	.	.
16d\	16ff#\	.	.	.
16B 16G\	16gg\	.	.	.
16d\JJ	16ff#\JJ	.	.	.
=83	=83	=83	=83	=83
16cnLL 16Gn\	16ee\LL	.	.	.
16e\	16dd#X\	.	.	.
16c 16G\	16ee\	.	.	.
16e\JJ	16ff#\JJ	.	.	.
16cLL 16G\	16ggn\LL	.	.	.
16e\	16ff#\	.	.	.
16c 16G\	16gg\	.	.	.
16e\JJ	16aa#\JJ	.	.	.
!!LO:LB:g=original
=84	=84	=84	=84	=84
8GnL 8GGn\	8bb'\L	.	.	.
8dnJ 8B 8G\	(16bb\L	.	.	.
.	16b\JJ)	.	.	.
8F#L 8FF#\	8b\L	.	.	.
8d#XJ 8B 8An 8F#\	16aan\L	.	.	.
.	16b\JJ	.	.	.
=85	=85	=85	=85	=85
8EL 8EE\	8b\L	.	.	.
8eJ 8B 8Gn 8E\	16ggn\L	.	.	.
.	16b\JJ	.	.	.
8DnL 8DDn/	8b\L	.	.	.
8BJ 8F# 8D/	16ff#\L	.	.	.
.	16b\JJ	.	.	.
=86	=86	=86	=86	=86
8C#\L 8CC#\	8b\L	.	.	.
8c#\J 8G#\ 8C#\	16ee#X\L	.	.	.
.	16b\JJ	.	.	.
8F#L 8FF#\	8a#X\L	.	.	.
8c#J 8F#\	16cc#\L	.	.	.
.	16een\JJ	.	.	.
=87	=87	=87	=87	=87
8AnL 8BB\	(16dd#\LL	.	<	.
.	16b\	.	.	.
8G# 8BB\	16ee 16cc#\	.	.	.
.	16b\JJ	.	.	.
8F# 8BB\	16ff#LL 16dd#\	.	.	.
.	16b\	.	.	.
8EJ 8BB\	16gg# 16ee\	.	.	.
.	16b\JJ)	.	[[	.
!!LO:LB:g=original
=88	=88	=88	=88	=88
8B 8D# 8BB\	8aan 8ff# 8b\	.	sf	.
8r	8r	.	.	.
4r	(8b'\L	.	p	.
.	8cc#'\J	.	.	.
=89	=89	=89	=89	=89
2r	8dd#\L	.	.	.
.	32ee\LL	.	.	.
.	32dd#\	.	.	.
.	32cc#\	.	.	.
.	32dd#\JJJ	.	.	.
.	8ee\L	.	.	.
.	8ff#\J	.	.	.
*kcancel	*kcancel	*	*	*
=90	=90	=90	=90	=90
*k[f#c#g#d#]	*k[f#c#g#d#]	*	*	*
8f#: 8d#: 8B: 8A:\	4ff#\)	.	.	.
8r	.	.	.	.
4r	(8b'\L	.	.	.
.	8cc#'\J	.	.	.
=91	=91	=91	=91	=91
2r	8dd#\L	.	.	.
.	32ee\LL	.	.	.
.	32dd#\	.	.	.
.	32cc#\	.	.	.
.	32dd#\JJJ	.	.	.
.	8ee\L	.	.	.
.	8ff#\J	.	.	.
=92	=92	=92	=92	=92
*	*^	*	*	*
8d#: 8B: 8A: 8F#:\	8ff#^\L	4ryy	.	.	.
8r	8b\J)	.	.	.	.
(<[4e 4G#\	(8.ee/L	4b\	.	.	.
.	16dd#/Jk	.	.	.	.
=93	=93	=93	=93	=93	=93
4e] 4A\	8dd#/L	4a\	.	.	.
.	8cc#/	.	.	.	.
[4B 4D#\	8b/	4f#\	.	.	.
.	8a/J)	.	.	.	.
!!LO:LB:g=original
=94	=94	=94	=94	=94	=94
4B] 4E\	4g#/	4g#\	.	.	.
[4c# 4E#X\	8.cc#/L	4g#\	.	.	.
.	16b/Jk	.	.	.	.
=95	=95	=95	=95	=95	=95
*	*	*Xtuplet	*	*	*
*	*	*cue	*	*	*
4c#] 4F#\	8b/L	40b\LLL	.	.	.
.	.	40cc#\	.	.	.
.	.	40b\	.	.	.
.	.	40a\	.	.	.
.	.	40b\JJJ	.	.	.
.	16cc#'>/L	8ryy	.	.	.
.	16a'>/JJ	.	.	.	.
4d#: 4G#: 4BB#X:\	8g#/L	40g#\LLL	.	.	.
.	.	40a\	.	.	.
.	.	40g#\	.	.	.
.	.	40f#\	.	.	.
.	.	40g#\JJJ	.	.	.
*	*	*Xcue	*	*	*
.	16a'>/L	8ryy	.	.	.
.	16f#'>/JJ	.	.	.	.
*	*	*tuplet	*	*	*
*	*v	*v	*	*	*
=96	=96	=96	=96	=96
*^	*	*	*	*
!	!LO:TX:t=P:problem:błędne wyświetlanie łuku	!	!	!	!
(4c#/)	(>2G# 2BB#X/	4e/	.	.	.
4ryy	.	(8c#/L	.	p	.
.	.	8d#/J	.	.	.
*v	*v	*	*	*	*
=97	=97	=97	=97	=97
*	*^	*	*	*
2G# 2C#) 2BB\)	8e/L	4ryy	.	.	.
.	8g#/	.	.	.	.
.	8cc#/	[4cc#\	.	.	.
.	8ee/J	.	.	.	.
=98	=98	=98	=98	=98	=98
2E 2AA/	4ryy	4ee 4cc#] 4e/)	.	.	.
.	(8c#/L	4ryy	.	.	.
.	8d#/J	.	.	.	.
*	*v	*v	*	*	*
=99	=99	=99	=99	=99
*^	*	*	*	*
4E/	4GG#\	8e/L	.	.	.
.	.	8g#/	.	.	.
4G#/	(4C#\	8b/	.	.	.
.	.	8ee/J	.	.	.
*v	*v	*	*	*	*
!!LO:LB:g=original
=100	=100	=100	=100	=100
*	*^	*	*	*
4B 4D#\	4b/)	4f#\	.	.	.
4G# 4Dn\	8b/L	4e\	.	.	.
.	8b/J	.	.	.	.
=101	=101	=101	=101	=101	=101
4G# 4C#\	8b/L	4e#X\	.	.	.
.	8b/	.	.	.	.
4A 4Cn\	8.a/	8.fn\L	.	.	.
.	16a/Jk	16e#\Jk	.	.	.
=102	=102	=102	=102	=102	=102
*	*ped	*	*	*	*
8BB 8BBB/)	8.ff#;/L	8a 8d#\	.	.	.
8r;	.	8ryy	.	.	.
*	*Xped	*	*	*	*
.	16dd#/Jk	.	.	.	.
4r	16b/LL	4ryy	.	.	.
.	16a#X/	.	.	.	.
!	!	!	!	!LO:HP:a:t=di-mi-nu-en-do:ext2=ud	!
.	16b/	.	.	>	.
.	16b#X/JJ	.	.	.	.
*	*v	*v	*	*	*
=103	=103	=103	=103	=103
2r	16dd#/LL	.	.	.
.	16cc#/	.	.	.
.	16bn/	.	.	.
.	16a/JJ	.	.	.
.	16qqg#/LL	.	.	.
.	16qqa/JJ	.	.	.
.	16g#/LL	.	.	.
.	16f#/	.	.	.
.	16g#/	.	.	.
.	16a/JJ	.	.	.
=104	=104	=104	=104	=104
2r	8.cc#\L	.	.	.
.	16ccn\Jk	.	]	.
.	16a/LL	.	.	.
.	16f#/	.	.	.
.	16d#/	.	.	.
.	16B/JJ	.	.	.
!!LO:PB:g=original
=105	=105	=105	=105	=105
2r	2bb 2b\	.	.	.
=106	=106	=106	=106	=106
8EE\L	8bbL 8b\	.	pp	.
8eJ 8B 8G#\	8eeeJ 8ee\	.	.	.
8E\L	(8.eeeL 8.ee^\	.	.	.
8eJ 8B 8G#\	.	.	.	.
.	16ddd#Jk 16dd#\)	.	.	.
=107	=107	=107	=107	=107
8A\L	8ddd#L 8dd#\	.	.	.
8eJ 8c#\	8ccc#J 8cc#\	.	.	.
8E\L	4bb 4b\	.	.	.
8eJ 8B 8G#\	.	.	.	.
=108	=108	=108	=108	=108
8A'\L	(8cc#\L	Bla-	.	.
8e 8c#'\	8ee\)	-sku	.	.
8G#'\	8b\	na	.	.
.	8qdd#/	.	.	.
8eJ 8B 8E'\	8cc#\J	dziś	.	.
=109	=109	=109	=109	=109
*	*^	*	*	*
8D#'\L	8.b/L	8r	pra-	.	.
8B 8F# 8BB'\	.	8d#\	.	.	.
.	16a/Jk	.	-gnę	.	.
8E'\	8a/L	8r	szcze-	.	.
8B'\J	8g#/J	8e\	-rze,	.	.
*	*v	*v	*	*	*
=110	=110	=110	=110	=110
8BB\L	(16f#'/LL	Po-	.	.
.	16g#'/	.	.	.
8d#J 8B 8F#\	16a#X'/	-tem	.	.
.	16b'/JJ)	.	.	.
8FF#\L	(8dd#\L	ujść	.	.
8eJ 8A#X 8F#\	16cc#\L)	do	.	.
.	16b\JJ	.	.	.
=111	=111	=111	=111	=111
8BB\L	(16b/LL	mias-	.	.
.	16a#X/)	.	.	.
8d#J 8B 8F#\	16g#'/	-ta	.	.
.	16f#'/JJ	.	.	.
8FF#\L	(8.dd#^\L	w dal	.	.
8eJ 8A#X 8F#\	.	.	.	.
.	16cc#\Jk)	.	.	.
!!LO:LB:g=original
=112	=112	=112	=112	=112
!	!	!	!LO:HP:a	!
8D#\L	16b\LL	z tm	<	.
.	16cc#\	.	.	.
8BJ 8F# 8BB\	16dd#\	co	.	.
.	16ff#\JJ	.	[	.
8EE\L	(8.ff#^\L	ser-	.	.
8c#J 8G# 8E\	.	.	.	.
.	16ee\Jk)	-ce	.	.
=113	=113	=113	=113	=113
8FF#\L	(8dd#\L	me	.	.
8eJ 8A 8F#\	8cc#\)	wy-	.	.
.	8qdd#/	.	.	.
8BB\L	(8cc#\	-bie-	.	.
8d#J 8An 8F#\	8b\J)	-rze,	.	.
=114	=114	=114	=114	=114
8E\L	8b\L	Chcę	.	.
8eJ 8G#\	8ee\J	śród	.	.
.	8qff#/	.	.	.
8E\L	8.ee\L	skal-	.	.
8eJ 8B#X 8G#\	.	.	.	.
.	16dd#\Jk	-nych	.	.
=115	=115	=115	=115	=115
.	8qee/	.	.	.
8E\L	8dd#\L	ma-	.	.
8eJ 8c# 8A\	8cc#\J	-rzyć	.	.
8E\L	4b\	chat.	.	.
8eJ 8B 8G#\	.	.	.	.
=116	=116	=116	=116	=116
*	*^	*	*	*
*	*Xtuplet	*	*	*	*
4e 4A^\	(24cc#/LL	(4cc#\	A-	.	.
.	24aa/	.	.	.	.
.	24gg#/	.	.	.	.
.	24ff#/	.	-le	.	.
.	24ee/	.	.	.	.
.	24cc#/JJ	.	.	.	.
8eL 8G#\	24b/LL	8b\)	hołd	.	.
.	24gg#/	.	.	.	.
.	24dd#/JJ	.	.	.	.
*	*	*Xtuplet	*	*	*
*	*	*cue	*	*	*
!	!LO:N:vis=8	!LO:N:vis=24	!	!	!
8BJ 8E\	16ee/LL	96ee\LLL	.	pp	.
!	!	!LO:N:vis=24	!	!	!
.	.	96g#\	.	.	.
!	!	!LO:N:vis=24	!	!	!
.	.	96a\	.	.	.
!	!	!LO:N:vis=24	!	!	!
.	.	96a#\	.	.	.
!	!	!LO:N:vis=24	!	!	!
.	.	96b\	.	.	.
!	!	!LO:N:vis=24	!	!	!
.	.	96b#X\JJJ	.	.	.
*	*	*Xcue	*	*	*
*	*	*tuplet	*	*	*
!	!LO:N:vis=16	!	!	!	!
.	32dd#/L	16ryy	niech	.	.
!	!LO:N:vis=32	!	!	!	!
.	64r	.	.	.	.
!	!LO:N:vis=32	!	!	!	!
.	64cc#/JJJk)	.	.	.	.
!!LO:LB:g=original
=117	=117	=117	=117	=117	=117
8F#L 8D#\	(8.b/L	8r	od-	.	.
8BJ 8F# 8BB\	.	8d#\L	.	.	.
.	16a/K	.	-da	.	.
8E\L	8g#/J)	8r	świat,	.	.
8BJ 8G#\	8r	8e\J	.	.	.
*	*v	*v	*	*	*
=118	=118	=118	=118	=118
8A\L	16f#/LL	.	<	.
.	16g#/	.	.	.
8d#J 8B\	16a/	.	.	.
.	16b/JJ	.	.	.
8G#\L	8.cc#\L	.	[ >	.
8eJ 8B\	.	.	.	.
.	16b\Jk	.	]]	.
=119	=119	=119	=119	=119
8F#\L	16a\LL	.	<	.
.	16b\	.	.	.
8d#J 8B 8A\	16cc#\	.	.	.
.	16dd#\JJ	.	.	.
8E\L	8.ff#\L	.	[ >	.
8eJ 8B 8G#\	.	.	.	.
.	16ee\Jk	.	]]	.
=120	=120	=120	=120	=120
8AA\L	16dd#\LL	.	.	.
.	16cc#\	.	.	.
8f#J 8c# 8A\	16b\	.	.	.
.	16a\JJ	.	.	.
8BB\L	8g#/L	.	.	.
.	8qcc#/	.	.	.
8eJ 8B 8G#\	8b/J	.	.	.
=121	=121	=121	=121	=121
.	8qb/	.	.	.
8BB\L	8a\L	.	.	.
.	8qdd#/	.	.	.
8d#J 8B 8A\	8cc#\	.	.	.
.	8qcc#/	.	.	.
8E\L	8b\J	.	.	.
8eJ 8B 8G#\	8r	.	.	.
!!LO:LB:g=original
=122	=122	=122	=122	=122
8A\L	16f#/LL	.	.	.
.	16g#/	.	.	.
!	!	!	!LO:HP:b:t=cre-scen-do:ext2=ud	!
8d#J 8B\	16a/	.	<	.
.	16b/JJ	.	.	.
8G#\L	8.cc#\L	.	.	.
8eJ 8B\	.	.	.	.
.	16b\Jk	.	.	.
=123	=123	=123	=123	=123
8BL 8A 8F#\	16cc#\LL	.	.	.
.	16dd#\	.	.	.
8BJ 8D# 8BB\	16ee\	.	.	.
.	16ff#\JJ	.	.	.
8.E 8.BB 8.EE/	(8.aaL 8.ee 8.b^\	.	[ f >	.
16r	16gg#\Jk	.	.	.
=124	=124	=124	=124	=124
*	*^	*	*	*
4r	16ff#\LL	4ryy	.	.	.
.	16ee\	.	.	.	.
.	16b\	.	.	.	.
.	16g#\JJ	.	.	.	.
8r	8e/)	8ryy	.	]	.
(8A#X [8BB\	16.ddn;/LL	8gn 8e\	.	sf	.
.	32cc#/JJk	.	.	.	.
=125	=125	=125	=125	=125	=125
!	!LO:TX:i:a:t=rallent.	!	!	!	!
8B 8BB\])	16b/LL	8d#\	.	.	.
.	16f#/	.	.	.	.
8r	16e#X^</	8r	.	.	.
.	16f#^</JJ	.	.	.	.
4r;	8.an^<;/L	4r	.	.	.
.	32g#/LL	.	.	.	.
.	32f#/JJJ	.	.	.	.
*	*v	*v	*	*	*
!!LO:LB:g=original
=126||	=126||	=126||	=126||	=126||
!!LO:TX:B:a:t=Più allegro.
!LO:TX:t=P:problem:spiccato u dołu	!LO:TX:t=P:problem:spiccato u dołu	!	!	!
8.EL 8.BB 8.EE^^</	8.eeL 8.g# 8.e^^</	.	.	.
16EJk 16BB 16EE/	16b/Jk	.	.	.
16ELL 16BB 16EE/	16g#\LL	.	.	.
16E 16BB 16EE/	16b\	.	.	.
16E 16BB 16EE/	16ee\	.	.	.
16EJJ 16BB 16EE/	16gg#\JJ	.	.	.
=127	=127	=127	=127	=127
8EL 8EE/	8bb'\L	.	.	.
8BJ 8G# 8E/	8bbJ 8gg# 8ee'\	.	.	.
!LO:TX:t=P:problem:spiccato u dołu	!	!	!	!
8E 8BB 8EE^^</	8eee 8gg# 8ee^^\	.	.	.
8r	8r	.	.	.
=128	=128	=128	=128	=128
8AA\L	(16cc#\LL	.	p	.
.	16ddn\JJ	.	.	.
8c# 8A 8E\	4ee^\	.	.	.
8c# 8A 8E\	.	.	.	.
8c#J 8A 8E\	16cc#\LL	.	.	.
.	16a\JJ)	.	.	.
=129	=129	=129	=129	=129
8GG#\L	(16g#/LL	.	.	.
.	16f#/JJ	.	.	.
8dn 8B 8E\	4e/)	.	.	.
8d 8B 8E\	.	.	.	.
8dJ 8B 8E\	16f#/LL	.	.	.
.	16g#/JJ	.	.	.
=130	=130	=130	=130	=130
8AA\L	16a/LL	.	.	.
.	16g#/	.	.	.
8c# 8A 8E\	16a/	.	.	.
.	16b/JJ	.	.	.
8c# 8A 8E\	16cc#\LL	.	.	.
.	16b\	.	.	.
8c#J 8A 8E\	16cc#\	.	.	.
.	16ddn\JJ	.	.	.
!!LO:LB:g=original
=131	=131	=131	=131	=131
8AA\L	8.ff#\L	.	.	.
8dn 8G# 8E\	.	.	.	.
.	16ee\Jk	.	.	.
8d 8G# 8E\	8b\	.	.	.
8dJ 8G# 8E\	8r	.	.	.
=132	=132	=132	=132	=132
8AA\L	(16ccn\LL	.	pp	.
.	16ddn\JJ	.	.	.
8cn 8A 8E\	4ee\)	.	.	.
8c 8A 8E\	.	.	.	.
8cJ 8A 8E\	(16cc\LL	.	.	.
.	16a\JJ)	.	.	.
=133	=133	=133	=133	=133
8AA\L	(16g#/LL	.	.	.
.	16b/JJ)	.	.	.
8dn 8B 8E\	4e/	.	.	.
8d 8B 8E\	.	.	.	.
8dJ 8B 8E\	16f#/LL	.	.	.
.	16g#/JJ	.	.	.
=134	=134	=134	=134	=134
8AA\L	16a/LL	.	.	.
.	16g#/	.	.	.
8cn 8A 8E\	16a/	.	.	.
.	16b/JJ	.	.	.
8c 8A 8E\	16ccn\LL	.	.	.
.	16b\	.	.	.
8cJ 8A 8E\	16cc\	.	.	.
.	16ddn\JJ	.	.	.
=135	=135	=135	=135	=135
*	*^	*	*	*
8B 8E 8GG#\	4ee\	4ryy	.	.	.
8r	.	.	.	.	.
4A\	8b/L	16f#LL 16d#\	.	.	.
.	.	16B\	.	.	.
.	16r	16f# 16d#\	.	.	.
.	16b/Jk	16B\JJ	.	.	.
!!LO:PB:g=original
=136	=136	=136	=136	=136	=136
4G#\	(4.b/	16e\LL	.	.	.
.	.	16B\	.	.	.
.	.	16e\	.	.	.
!	!	!	!	!LO:HP:b:t=cre-scen-do:ext2=ud	!
.	.	16B\JJ	.	<	.
4F#\	.	16d#\LL	.	.	.
.	.	16B\	.	.	.
.	8a/	16d#\	.	.	.
.	.	16B\JJ	.	.	.
=137	=137	=137	=137	=137	=137
4E\	8g#/)	16e\LL	.	.	.
.	.	16B\	.	.	.
.	8r	16e\	.	.	.
.	.	16B\JJ	.	.	.
4A\	8.r	16f#LL 16d#\	.	.	.
.	.	16B\	.	.	.
.	.	16f# 16d#\	.	.	.
.	16b/	16B\JJ	.	.	.
=138	=138	=138	=138	=138	=138
4G#\	(4.b/	16e\LL	.	.	.
.	.	16B\	.	.	.
.	.	16e\	.	.	.
.	.	16B\JJ	.	.	.
4F#\	.	16d#\LL	.	.	.
.	.	16B\	.	.	.
.	8a/	16d#\	.	.	.
.	.	16B\JJ	.	.	.
=139	=139	=139	=139	=139	=139
8E\	16g#/LL	8e\	.	[	.
.	16b/JJ)	.	.	.	.
(8f#L 8A\	(16dd#\LL	8ryy	.	.	.
.	16b\JJ	.	.	.	.
8e 8G#\	16ee\LL	4ryy	.	.	.
.	16b\	.	.	.	.
8d#J 8F#\	16ff#\	.	.	.	.
.	16b\JJ	.	.	.	.
*	*v	*v	*	*	*
!!LO:LB:g=original
=140	=140	=140	=140	=140
8e 8E\)	16gg#\LL	.	.	.
.	16b\JJ)	.	.	.
8c#L 8C#'\	(16ee\LL	.	.	.
.	16cc#\JJ	.	.	.
8B 8BB'\	16gg#LL 16ee\	.	.	.
.	16b\	.	.	.
8AJ 8AA'\	16aa 16ee\	.	.	.
.	16cc#\JJ)	.	.	.
=141	=141	=141	=141	=141
*ped	*	*	*	*
4.G# 4.GG#/	(16bbLL 16ee\	.	ff	.
.	16b\	.	.	.
.	16bb 16ee\	.	.	.
.	16b\JJ	.	.	.
.	16bbLL 16ee\	.	.	.
*Xped	*	*	*	*
.	16b\	.	.	.
8F##X 8FF##X/	16cc#\	.	.	.
.	16a#X\JJ	.	.	.
=142	=142	=142	=142	=142
!LO:TX:t=P:problem:krzyżyki poprzedzone kasownikami	!	!	!	!
8F#XL 8FF#X/	16dd#LL 16an\	.	.	.
.	16b\	.	.	.
8E 8EE/	16ee 16g#\	.	.	.
.	16b\JJ	.	.	.
8D# 8DD#/	16ff#LL 16f#\	.	.	.
.	16b\	.	.	.
8DnJ 8DDn/	16ee 16g#\	.	.	.
.	16b\JJ)	.	.	.
=143	=143	=143	=143	=143
*	*^	*	*	*
*ped	*	*	*	*	*
8C# 8CC#/	(2gg#/	16ee#X\LL	.	sf	.
.	.	16b\	.	.	.
8E#X\L	.	16ee#\	.	.	.
.	.	16b\JJ	.	.	.
8G#\	.	16ee#\LL	.	.	.
.	.	16b\	.	.	.
*Xped	*	*	*	*	*
8c#J 8C#\	.	16ee#\	.	.	.
.	.	16b\JJ	.	.	.
!!LO:LB:g=original
=144	=144	=144	=144	=144	=144
8F#L 8FF#/	4ff#/	16a#X\LL	.	.	.
.	.	16f#\	.	.	.
8C#/	.	16a#\	.	.	.
.	.	16f#\JJ	.	.	.
8AA#X/	4cc#/)	16a#\LL	.	.	.
.	.	16e\	.	.	.
8FF#/J	.	16a#\	.	.	.
.	.	16e\JJ	.	.	.
=145	=145	=145	=145	=145	=145
8B 8G# 8E 8BB\	(4.ee/	8r	.	.	.
8r	.	8g# 8e\	.	.	.
8G# 8E 8C#\	.	8r	.	.	.
8r	16dd#/LL	8g# 8e\	.	.	.
.	16cc#/JJ	.	.	.	.
*	*v	*v	*	*	*
=146	=146	=146	=146	=146
8GG#\L	16b/LL	.	.	.
.	16cc#/	.	.	.
8BJ 8E\	16b/	.	.	.
.	16a/JJ	.	.	.
8BB\L	16g#/LL	.	.	.
.	16b/	.	.	.
8BJ 8D#\	16a/	.	.	.
.	16f#/JJ	.	.	.
=147	=147	=147	=147	=147
8G# 8E'\	8e'/)	.	.	.
(8BL 8G#\	(8eeL 8g#/	.	.	.
8B#X 8A\	8dd# 8f#/	.	.	.
8c#J 8A#X\	8cc#J 8e/	.	.	.
=148	=148	=148	=148	=148
8Bn\)	8b 8d#/)	.	.	.
8BL 8F# 8BB'\	8bbL 8dd# 8b'\	.	.	.
8B 8F# 8C#'\	8aa#X 8ee 8b'\	.	.	.
8BJ 8F# 8D#'\	8aanJ 8ff# 8b'\	.	.	.
!!LO:LB:g=original
=149	=149	=149	=149	=149
8B 8G# 8E'\	8gg# 8ee 8b'\	.	.	.
(8BL 8G# 8E\	(8eeL 8g#/	.	.	.
8B#X 8A\	8dd# 8f#/	.	.	.
8c#J 8A#X\	8cc#J 8e/	.	.	.
=150	=150	=150	=150	=150
8Bn\)	8b 8d#/)	.	.	.
8BL 8F# 8BB'\	8bbL 8dd# 8b'\	.	.	.
8B 8F# 8C#'\	8aa#X 8ee 8b'\	.	.	.
8BJ 8F# 8D#'\	8aanJ 8ff# 8b'\	.	.	.
=151	=151	=151	=151	=151
*	*^	*	*	*
*ped	*	*	*	*	*
8E 8EE/	(4.gg#/	16ee\LL	.	.	.
.	.	16b\	.	.	.
8B\L	.	16ee\	.	.	.
.	.	16b\JJ	.	.	.
8G#\	.	16ee\LL	.	.	.
*Xped	*	*	*	*	*
.	.	16b\	.	.	.
8E\J	8dd#/	16dd#\	.	.	.
.	.	16b\JJ	.	.	.
=152	=152	=152	=152	=152	=152
*ped	*	*	*	*	*
8A\L	4ff#/	16cc#\LL	.	.	.
.	.	16a\	.	.	.
8E\	.	16cc#\	.	.	.
.	.	16a\JJ	.	.	.
8C#\	8ee/L	16cc#\LL	.	.	.
*Xped	*	*	*	*	*
.	.	16a\	.	.	.
8AA\J	8cc#/J)	16cc#\	.	.	.
.	.	16a\JJ	.	.	.
*	*v	*v	*	*	*
=153	=153	=153	=153	=153
8BB'/	8b 8g#'/	.	.	.
16B\LL	16b\LL	.	.	.
16B\JJ	16b\JJ	.	.	.
8eL 8B 8G#\	8eeL 8b 8g#\	.	.	.
8eJ 8B 8G#\	8gg#J 8ee 8b\	.	.	.
!!LO:LB:g=original
=154	=154	=154	=154	=154
*	*^	*	*	*
8BB 8BBB/	8bb 8ff# 8dd# 8b/	8r	.	.	.
8r	4ryy	[4dd#X;\	.	.	.
8ryy	.	.	.	.	.
*	*	*Xtuplet	*	*	*
*	*	*cue	*	*	*
!	!	!LO:N:vis=20	!	!	!
4ryy	4ryy	40dd#\LL]	.	.	.
!	!	!LO:N:vis=20	!	!	!
.	.	40ee\	.	.	.
!	!	!LO:N:vis=20	!	!	!
.	.	40dd#\	.	.	.
!	!	!LO:N:vis=20	!	!	!
.	.	40cc#\	.	.	.
!	!	!LO:N:vis=20	!	!	!
.	.	40b\	.	.	.
!	!	!LO:N:vis=20	!	!	!
.	.	40cc#\	.	.	.
!	!	!LO:N:vis=20	!	!	!
.	.	40dd#\	.	.	.
!	!	!LO:N:vis=20	!	!	!
.	.	40ee\	.	.	.
!	!	!LO:N:vis=20	!	!	!
.	.	40ff#\	.	.	.
!	!	!LO:N:vis=20	!	!	!
.	.	40gg#\JJ	.	.	.
*	*	*Xcue	*	*	*
8BB 8BBB;/	8aa 8ff# 8dd# 8a;/	8ryy	.	.	.
8ryy	8r	4ryy	.	.	.
8r	16cc#\LL	.	.	.	.
.	16dd#\JJ	.	.	.	.
*	*v	*v	*	*	*
=155	=155	=155	=155	=155
*ped	*	*	*	*
8.E 8.EE/	8.eeeL 8.bb 8.gg# 8.ee^^\	.	ff	.
16e 16B 16G# 16E'\	16bb'\Jk	.	.	.
16eLL 16B 16G# 16E'\	16gg#'\LL	.	.	.
16e 16B 16G# 16E'\	16ee'\	.	.	.
16e 16B 16G# 16E'\	16gg#'\	.	.	.
16eJJ 16B 16G# 16E'\	16bb'\JJ	.	.	.
=156	=156	=156	=156	=156
8.eL 8.B 8.E^^\	8.eeeL 8.gg# 8.ee^^\	.	.	.
16eJk 16B 16G# 16E\	16bb\Jk	.	.	.
16eLL 16B 16G# 16E'\	16gg#'\LL	.	.	.
16e 16B 16G# 16E'\	16ee'\	.	.	.
16e 16B 16G# 16E'\	16gg#'\	.	.	.
16eJJ 16B 16G# 16E'\	16bb'\JJ	.	.	.
!!LO:LB:g=original
=157	=157	=157	=157	=157
8e 8B 8G# 8E\	8eee\	.	.	.
*clefG2	*	*	*	*
16g#/LL	16gg#\LL	.	.	.
16f#/JJ	16ff#\JJ	.	.	.
8e/L	8ee\L	.	.	.
16d#/L	16dd#\L	.	.	.
16c#/JJ	16cc#\JJ	.	.	.
=158	=158	=158	=158	=158
8B/L	8b'\L	.	.	.
16cc#/L	16ccc#\L	.	.	.
16b/JJ	16bb\JJ	.	.	.
8g#/L	8gg#\L	.	.	.
16f#/L	16ff#\L	.	.	.
16e/JJ	16ee\JJ	.	.	.
=159	=159	=159	=159	=159
8b\	8bb\	.	.	.
*clefF4	*	*	*	*
8c#L 8C#'\	8eeeL 8ccc# 8gg# 8ee'\	.	.	.
8G# 8GG#'\	8ddd# 8bb 8gg# 8dd#'\	.	.	.
8AJ 8AA'\	8ccc#J 8aa 8ee 8cc#'\	.	.	.
=160	=160	=160	=160	=160
8E 8EE/	8bb 8gg# 8ee 8b\	.	.	.
8r	8r	.	.	.
8B 8F# 8D# 8BB\	8bb 8ff# 8dd# 8b\	.	.	.
8r	8r	.	.	.
=161	=161	=161	=161	=161
8E 8BB 8EE/	8eee 8bb 8gg# 8ee\	.	.	.
8r	8r	.	.	.
4r	4r	.	.	.
==	==	==	==	==
*-	*-	*-	*-	*-
!!!system-decoration: {(p1)}
!!!ENC: Berenika Jozajtis
!!!END: 2022-08-21
!!!ENC: Kamil Watkowski
!!!END: 2022-09-27
!!!RDF**kern: > = above
!!!RDF**kern: < = below!!!YEC: Copyright 2022 Narodowy Instytut Fryderyka Chopina (https://polishscores.org)
!!!YEM: License CC-BY-4.0 (https://creativecommons.org/licenses/by/4.0)
